!!!OTL: 1010. Die Lauterbacherin.
!!!ARE: Europa, Mitteleuropa, Deutschland, Oberrhein; France, Elsass
!!!SCT: E1010
!!!TXL: @@GSW
!!!YEM: Copyright 1995, estate of Helmut Schaffrath.
**kern	**text
*ICvox	*
*M3/8	*
*k[f#]	*
*G:	*
!LO:TX:a:t=Lustig.	!
!LO:TX:a:t=Aus dem Elſaß und vom Oberrhein. Weckerlin II, 170.	!
{8d	Jn
=1	=1
8.dd	Lau-
16dd	-ter-
8dd	-bach
=2	=2
8b/	hab
8a	ich
8g	min
=3	=3
[8a	Strümpfel
8a]	.
8f#	ver-
=4	=4
8d	-lo-
8d}	-ren,
{8d	und
=5	=5
8.ee	oh-
16ee	-ne
8dd	Strumpf
=6	=6
8cc	geh
8b	ich
8a	nit
=7	=7
[4.dd	heim;
=8	=8
4dd]}	.
{8d	drum
=9	=9
8.dd	geh
16dd	ich
8dd	nun
=10	=10
8b/	wieder
8a	.
8g	nach
=11	=11
4a	Lauterbach
8f#	.
=12	=12
8d	.
8d}	ʒu,
{8d	und
=13	=13
8.ee	kauf
16ee	mir
8dd	ein
=14	=14
8cc	Strumpf
8b	an
8a	min
=15	=15
[4.g	Bein.
=16	=16
8g]	.
8r}	.
==	==
!!!AGN: Tanz - Lied
!!!ONB: ESAC (Essen Associative Code) Database: ERK3
!!!AMT: simple triple
!!!AIN: vox
!!!EED: Helmut Schaffrath
!!!EEV: 1.0
!!!GTL: Tanz- und Spiellieder
!!!URL-scan: https://rosdok.uni-rostock.de/mcrviewer/recordIdentifier/rosdok_ppn745177662/iview2/phys_0773.iview2?x=-4.404412318551749&y=1392.1168713979423&scale=0.6456904138606624&rotation=0&layout=singlePageLayout
!!!ENC: Anna Maria Matuszewska
!!!EEV: 2024/12/23
*-	*-
